Sources/FrostedUI/Resources/Icons.xcassets/lightsOff24.imageset/lights-off-24.svg

<svg width="24" height="24" viewBox="0 0 24 24" fill="none" xmlns="http://www.w3.org/2000/svg" data-fui-icon="true">
  <path
    d="M14.4004 22.5C14.8144 22.5002 15.1504 22.8359 15.1504 23.25C15.1504 23.6641 14.8144 23.9998 14.4004 24H9.59961C9.18558 23.9998 8.84961 23.6641 8.84961 23.25C8.84961 22.8359 9.18558 22.5002 9.59961 22.5H14.4004ZM12 5C16.0763 5 19 8.09774 19 12C19 14.5993 17.4319 16.2213 16.3818 17.0146C15.9755 17.3216 15.75 17.7299 15.75 18.1006C15.7499 19.7018 14.4518 20.9999 12.8506 21H11.1494C9.54817 20.9999 8.25013 19.7018 8.25 18.1006C8.25 17.7299 8.02449 17.3216 7.61816 17.0146C6.56814 16.2213 5 14.5993 5 12C5 8.09774 7.92371 5 12 5ZM12 6.5C8.77584 6.5 6.5 8.90226 6.5 12C6.5 13.9283 7.65158 15.1604 8.52246 15.8184C9.18646 16.3201 9.75 17.1298 9.75 18.1006C9.75013 18.8734 10.3766 19.4999 11.1494 19.5H12.8506C13.6234 19.4999 14.2499 18.8734 14.25 18.1006C14.25 17.1298 14.8135 16.3201 15.4775 15.8184C16.3484 15.1604 17.5 13.9283 17.5 12C17.5 8.90226 15.2242 6.5 12 6.5Z"
    fill="currentColor"
  />
</svg>

<svg xmlns="http://www.w3.org/2000/svg" width="24" height="24" fill="none" data-fui-icon="true" viewBox="0 0 24 24"><path fill="currentColor" d="M14.4 22.5a.75.75 0 0 1 0 1.5H9.6a.75.75 0 0 1 0-1.5zM12 5c4.076 0 7 3.098 7 7 0 2.6-1.568 4.221-2.618 5.015-.407.307-.632.715-.632 1.086A2.9 2.9 0 0 1 12.85 21h-1.7a2.9 2.9 0 0 1-2.9-2.9c0-.37-.226-.778-.632-1.085C6.568 16.22 5 14.599 5 12c0-3.902 2.924-7 7-7m0 1.5c-3.224 0-5.5 2.402-5.5 5.5 0 1.928 1.152 3.16 2.022 3.818.664.502 1.228 1.312 1.228 2.283a1.4 1.4 0 0 0 1.4 1.399h1.7a1.4 1.4 0 0 0 1.4-1.4c0-.97.563-1.78 1.227-2.282.871-.658 2.023-1.89 2.023-3.818 0-3.098-2.276-5.5-5.5-5.5"/></svg>
